X:1
T:Top of Cork Road
R:Jig
M:6/8
%%printtempo 0
Q:180
K:D
"D"dAF DFA|"G"Bed "A"cBA|"D"dcd efg|"Bm"fdf "A"ecA|
"D"dAF DFA|"G"Bed "A"cBA|"G"dcd "A"efg|1"D"fdd d3:|2"D"fdd d2||
|:g2|\
"D"fdf fga|"A"ecA ABc|"Bm"dcd fed|"A"cAA A2=c|
"G"BGB Bcd|"D"AFD DFA|"G"d2 d "A"efg|1"D"fdd d3:|2"D"fdd d2|]
